apps/16/application-default-icon.svg

<?xml version="1.0" encoding="UTF-8" standalone="no"?>
<svg
   xmlns:dc="http://purl.org/dc/elements/1.1/"
   xmlns:cc="http://creativecommons.org/ns#"
   xmlns:rdf="http://www.w3.org/1999/02/22-rdf-syntax-ns#"
   xmlns:svg="http://www.w3.org/2000/svg"
   xmlns="http://www.w3.org/2000/svg"
   xmlns:sodipodi="http://sodipodi.sourceforge.net/DTD/sodipodi-0.dtd"
   xmlns:inkscape="http://www.inkscape.org/namespaces/inkscape"
   height="16"
   width="16"
   version="1.1"
   id="svg6"
   sodipodi:docname="application-default-icon.svg"
   inkscape:version="0.92.2 (unknown)">
  <metadata
     id="metadata12">
    <rdf:RDF>
      <cc:Work
         rdf:about="">
        <dc:format>image/svg+xml</dc:format>
        <dc:type
           rdf:resource="http://purl.org/dc/dcmitype/StillImage" />
      </cc:Work>
    </rdf:RDF>
  </metadata>
  <defs
     id="defs10" />
  <sodipodi:namedview
     pagecolor="#808080"
     bordercolor="#808080666"
     borderopacity="1"
     objecttolerance="10"
     gridtolerance="10"
     guidetolerance="10"
     inkscape:pageopacity="0"
     inkscape:pageshadow="2"
     inkscape:window-width="1288"
     inkscape:window-height="733"
     id="namedview8"
     showgrid="false"
     inkscape:zoom="14.75"
     inkscape:cx="8"
     inkscape:cy="8"
     inkscape:window-x="401"
     inkscape:window-y="392"
     inkscape:window-maximized="0"
     inkscape:current-layer="svg6" />
  <g
     transform="translate(-1153 267)"
     id="g4"
     style="fill-opacity:1;fill:#808080">
    <path
       d="M1155.5-266c-.822 0-1.5.678-1.5 1.5v11c0 .822.678 1.5 1.5 1.5h11c.823 0 1.5-.678 1.5-1.5v-11c0-.822-.677-1.5-1.5-1.5zm0 1h11c.286 0 .5.214.5.5v11c0 .286-.214.5-.5.5h-11a.488.488 0 0 1-.5-.5v-11c0-.286.215-.5.5-.5zm4.701 2.002v1.187l-.175.063c-.082.03-.176.075-.276.123l-.168.082-.834-.832c0-.003-.01-.004-.012-.006 0 .002-.012.004-.012.006l-1.1 1.1c.012-.011.012.03 0 .02l.833.835-.082.17a3.07 3.07 0 0 0-.121.273l-.065.178h-1.19v1.598h1.19l.065.178c.029.08.072.173.12.273l.083.17-.832.836c.01-.01.01.03 0 .02l1.1 1.099c-.012-.01.032-.01.022 0l.834-.832.168.082c.1.047.193.093.276.123l.175.062v1.188h1.6v-1.188l.178-.062c.082-.03.173-.075.273-.123l.172-.082.832.832c-.011-.01.034-.01.023 0l1.1-1.1c-.011.011-.011-.03 0-.02l-.834-.835.082-.17c.048-.1.092-.192.12-.274l.065-.177h1.188v-1.598h-1.188l-.064-.178a2.75 2.75 0 0 0-.121-.273l-.082-.17.834-.836c-.011.01-.011-.03 0-.02l-1.1-1.099c.011.01-.034.01-.022 0l-.834.832-.17-.082c-.099-.048-.193-.093-.275-.123l-.176-.063v-1.187zm.801 2.666c.733 0 1.332.6 1.332 1.332 0 .733-.599 1.332-1.332 1.332-.733 0-1.334-.6-1.334-1.332 0-.733.601-1.332 1.334-1.332z"
       fill="#808080"
       overflow="visible"
       style="marker:none;fill-opacity:1;fill:#808080"
       id="path2" />
  </g>
</svg>

<svg xmlns="http://www.w3.org/2000/svg" width="16" height="16" version="1.1">
 <g style="fill:#808080" transform="translate(-1153,267)">
  <path style="fill:#808080" d="M 1155.5,-266 C 1154.7,-266 1154,-265.32 1154,-264.5 V -253.5 C 1154,-252.68 1154.7,-252 1155.5,-252 H 1166.5 C 1167.3,-252 1168,-252.68 1168,-253.5 V -264.5 C 1168,-265.32 1167.3,-266 1166.5,-266 Z M 1155.5,-265 H 1166.5 C 1166.8,-265 1167,-264.79 1167,-264.5 V -253.5 C 1167,-253.21 1166.8,-253 1166.5,-253 H 1155.5 A 0.488,0.488 0 0 1 1155,-253.5 V -264.5 C 1155,-264.79 1155.2,-265 1155.5,-265 Z M 1160.2,-263 V -261.81 L 1160,-261.75 C 1159.9,-261.72 1159.9,-261.67 1159.7,-261.62 L 1159.6,-261.54 1158.7,-262.37 C 1158.7,-262.38 1158.7,-262.38 1158.7,-262.38 1158.7,-262.38 1158.7,-262.38 1158.7,-262.37 L 1157.6,-261.27 C 1157.6,-261.29 1157.6,-261.25 1157.6,-261.25 L 1158.5,-260.42 1158.4,-260.25 A 3.07,3.07 0 0 0 1158.3,-259.98 L 1158.2,-259.8 H 1157 V -258.2 H 1158.2 L 1158.3,-258.02 C 1158.3,-257.94 1158.3,-257.85 1158.4,-257.75 L 1158.5,-257.58 1157.6,-256.74 C 1157.6,-256.75 1157.6,-256.71 1157.6,-256.72 L 1158.7,-255.62 C 1158.7,-255.63 1158.8,-255.63 1158.7,-255.62 L 1159.6,-256.46 1159.7,-256.37 C 1159.8,-256.33 1159.9,-256.28 1160,-256.25 L 1160.2,-256.19 V -255 H 1161.8 V -256.19 L 1162,-256.25 C 1162.1,-256.28 1162.2,-256.33 1162.3,-256.37 L 1162.4,-256.46 1163.3,-255.62 C 1163.2,-255.63 1163.3,-255.63 1163.3,-255.62 L 1164.4,-256.72 C 1164.4,-256.71 1164.4,-256.75 1164.4,-256.74 L 1163.5,-257.58 1163.6,-257.75 C 1163.7,-257.85 1163.7,-257.94 1163.7,-258.02 L 1163.8,-258.2 H 1165 V -259.8 H 1163.8 L 1163.7,-259.98 A 2.75,2.75 0 0 0 1163.6,-260.25 L 1163.5,-260.42 1164.4,-261.26 C 1164.4,-261.25 1164.4,-261.29 1164.4,-261.28 L 1163.3,-262.37 C 1163.3,-262.37 1163.2,-262.37 1163.3,-262.37 L 1162.4,-261.54 1162.3,-261.62 C 1162.2,-261.67 1162.1,-261.72 1162,-261.75 L 1161.8,-261.81 V -263 Z M 1161,-260.33 C 1161.7,-260.33 1162.3,-259.73 1162.3,-259 1162.3,-258.27 1161.7,-257.67 1161,-257.67 1160.3,-257.67 1159.7,-258.27 1159.7,-259 1159.7,-259.73 1160.3,-260.33 1161,-260.33 Z"/>
 </g>
</svg>
